; generated by PrusaSlicer 2.8.0+win64 on 2024-07-11 at 04:50:03 UTC


;
;
; 

; external perimeters extrusion width = 0.60mm
; perimeters extrusion width = 0.60mm
; infill extrusion width = 0.60mm
; solid infill extrusion width = 0.60mm
; top infill extrusion width = 0.60mm
; support material extrusion width = 0.35mm
; first layer extrusion width = 0.60mm

M73 P0 R139
M73 Q0 S139
M201 X1000 Y1000 Z200 E5000 ; sets maximum accelerations, mm/sec^2
M203 X200 Y200 Z12 E120 ; sets maximum feedrates, mm / sec
M204 S1250 T1250 ; sets acceleration (S) and retract acceleration (R), mm/sec^2
M205 X8.00 Y8.00 Z0.40 E4.50 ; sets the jerk limits, mm/sec
M205 S0 T0 ; sets the minimum extruding and travel feed rate, mm/sec

; printing object Support id:0 copy 0
; stop printing object Support id:0 copy 0

;TYPE:Custom
M862.3 P "MK3S" ; printer model check
M862.1 P0.4 ; nozzle diameter check
M115 U3.14.0 ; tell printer latest fw version
G90 ; use absolute coordinates
M83 ; extruder relative mode
M104 S240 ; set extruder temp
M140 S50 ; set bed temp
M190 S50 ; wait for bed temp
M109 S240 ; wait for extruder temp
G28 W ; home all without mesh bed level
G80 X76.1454 Y81.5057 W106.163 H46.9886 ; mesh bed levelling

G1 Z0.2 F720
G1 Y-3 F1000 ; go outside print area
G92 E0
G1 X60 E9 F1000 ; intro line
G1 X100 E12.5 F1000 ; intro line

G92 E0
M221 S95

; Don't change E values below. Excessive value can damage the printer.

G21 ; set units to millimeters
G90 ; use absolute coordinates
M83 ; use relative distances for extrusion
; Filament gcode
M107
;LAYER_CHANGE
;Z:0.25
;HEIGHT:0.25
G1 E-1.5 F900
G1 Z.65 F720
G1 X79.838 Y83.616 F4200
G1 Z.25 F720
G1 E1.5 F900
M204 S300
;TYPE:Skirt/Brim
;WIDTH:0.6
G1 F439.279
G1 X81.671 Y82.344 E.14317
G1 X84.273 Y81.779 E.17086
G1 X174.18 Y81.779 E5.76921
G1 X176.376 Y82.176 E.1432
G1 X178.616 Y83.616 E.17088
G1 X180.197 Y85.198 E.14352
G1 X181.469 Y87.031 E.14317
G1 X182.035 Y89.634 E.17093
G1 X182.035 Y120.366 E1.97203
G1 X181.638 Y122.562 E.1432
M73 P0 R138
M73 Q0 S138
G1 X180.197 Y124.802 E.17091
G1 X178.616 Y126.384 E.14352
G1 X176.783 Y127.656 E.14317
G1 X174.18 Y128.221 E.17092
G1 X84.273 Y128.221 E5.76921
G1 X82.078 Y127.824 E.14314
G1 X79.838 Y126.384 E.17088
G1 X78.256 Y124.802 E.14356
G1 X76.984 Y122.969 E.14317
G1 X76.419 Y120.366 E.17092
G1 X76.419 Y89.634 E1.97203
G1 X76.815 Y87.438 E.14319
G1 X78.256 Y85.198 E.17091
G1 X79.795 Y83.659 E.13966
;WIPE_START
G1 F3360
G1 X79.838 Y83.616 E-.01547
G1 X81.671 Y82.344 E-.56774
G1 X84.273 Y81.779 E-.67755
G1 X85.213 Y81.779 E-.23924
;WIPE_END
G1 Z.65 F720
; printing object Support id:0 copy 0
G1 X175.762 Y89.634 F4200
G1 Z.25 F720
G1 E1.5 F900
;TYPE:Support material
G1 F439.279
G1 X175.762 Y120.366 E1.97203
G1 X174.18 Y121.948 E.14356
G1 X84.273 Y121.948 E5.76921
G1 X82.692 Y120.366 E.14352
G1 X82.692 Y89.634 E1.97203
G1 X84.273 Y88.052 E.14352
G1 X174.18 Y88.052 E5.76921
G1 X175.704 Y89.576 E.1383
M73 P0 R137
M73 Q0 S137
;WIPE_START
G1 F3360
G1 X174.18 Y88.052 E-.54844
G1 X170.441 Y88.052 E-.95156
M73 P1 R137
M73 Q1 S137
;WIPE_END
G1 Z.65 F720
G1 X174.39 Y88.61 F4200
G1 Z.25 F720
G1 E1.5 F900
G1 F439.279
G1 X84.411 Y88.61 E5.77383
G1 X83.804 Y89.217 E.05508
G1 X174.649 Y89.217 E5.8294
G1 X175.256 Y89.824 E.05508
G1 X83.183 Y89.837 E5.9082
G1 X83.183 Y90.431 E.03812
G1 X175.27 Y90.431 E5.9091
G1 X175.27 Y91.038 E.03895
G1 X83.183 Y91.038 E5.9091
G1 X83.183 Y91.645 E.03895
M73 P1 R136
M73 Q1 S136
G1 X175.27 Y91.645 E5.9091
G1 X175.27 Y92.252 E.03895
G1 X83.183 Y92.252 E5.9091
G1 X83.183 Y92.859 E.03895
M73 P2 R136
M73 Q2 S136
G1 X175.27 Y92.859 E5.9091
G1 X175.27 Y93.466 E.03895
G1 X83.183 Y93.466 E5.9091
G1 X83.183 Y94.073 E.03895
G1 X175.27 Y94.073 E5.9091
G1 X175.27 Y94.68 E.03895
M73 P2 R135
M73 Q2 S135
G1 X83.183 Y94.68 E5.9091
G1 X83.183 Y95.287 E.03895
G1 X175.27 Y95.287 E5.9091
G1 X175.27 Y95.894 E.03895
G1 X83.183 Y95.894 E5.9091
G1 X83.183 Y96.501 E.03895
G1 X175.27 Y96.501 E5.9091
G1 X175.27 Y97.108 E.03895
M73 P3 R135
M73 Q3 S135
G1 X83.183 Y97.108 E5.9091
G1 X83.183 Y97.715 E.03895
M73 P3 R134
M73 Q3 S134
G1 X175.27 Y97.715 E5.9091
G1 X175.27 Y98.322 E.03895
G1 X83.183 Y98.322 E5.9091
G1 X83.183 Y98.929 E.03895
G1 X175.27 Y98.929 E5.9091
G1 X175.27 Y99.537 E.03901
G1 X83.183 Y99.537 E5.9091
G1 X83.183 Y100.144 E.03895
M73 P3 R133
M73 Q3 S133
G1 X175.27 Y100.144 E5.9091
G1 X175.27 Y100.751 E.03895
M73 P4 R133
M73 Q4 S133
G1 X83.183 Y100.751 E5.9091
G1 X83.183 Y101.358 E.03895
G1 X175.27 Y101.358 E5.9091
G1 X175.27 Y101.965 E.03895
G1 X83.183 Y101.965 E5.9091
G1 X83.183 Y102.572 E.03895
G1 X175.27 Y102.572 E5.9091
G1 X175.27 Y103.179 E.03895
M73 P4 R132
M73 Q4 S132
G1 X83.183 Y103.179 E5.9091
G1 X83.183 Y103.786 E.03895
G1 X175.27 Y103.786 E5.9091
G1 X175.27 Y104.393 E.03895
G1 X83.183 Y104.393 E5.9091
G1 X83.183 Y105 E.03895
M73 P5 R132
M73 Q5 S132
G1 X175.27 Y105 E5.9091
G1 X175.27 Y105.607 E.03895
G1 X83.183 Y105.607 E5.9091
G1 X83.183 Y106.214 E.03895
M73 P5 R131
M73 Q5 S131
G1 X175.27 Y106.214 E5.9091
G1 X175.27 Y106.821 E.03895
G1 X83.183 Y106.821 E5.9091
G1 X83.183 Y107.428 E.03895
G1 X175.27 Y107.428 E5.9091
G1 X175.27 Y108.035 E.03895
G1 X83.183 Y108.035 E5.9091
G1 X83.183 Y108.642 E.03895
G1 X175.27 Y108.642 E5.9091
M73 P6 R131
M73 Q6 S131
G1 X175.27 Y109.249 E.03895
M73 P6 R130
M73 Q6 S130
G1 X83.183 Y109.249 E5.9091
G1 X83.183 Y109.856 E.03895
G1 X175.27 Y109.856 E5.9091
G1 X175.27 Y110.463 E.03895
G1 X83.183 Y110.463 E5.9091
G1 X83.183 Y111.071 E.03901
G1 X175.27 Y111.071 E5.9091
G1 X175.27 Y111.678 E.03895
M73 P6 R129
M73 Q6 S129
G1 X83.183 Y111.678 E5.9091
G1 X83.183 Y112.285 E.03895
G1 X175.27 Y112.285 E5.9091
G1 X175.27 Y112.892 E.03895
M73 P7 R129
M73 Q7 S129
G1 X83.183 Y112.892 E5.9091
G1 X83.183 Y113.499 E.03895
G1 X175.27 Y113.499 E5.9091
G1 X175.27 Y114.106 E.03895
G1 X83.183 Y114.106 E5.9091
G1 X83.183 Y114.713 E.03895
M73 P7 R128
M73 Q7 S128
G1 X175.27 Y114.713 E5.9091
G1 X175.27 Y115.32 E.03895
G1 X83.183 Y115.32 E5.9091
G1 X83.183 Y115.927 E.03895
G1 X175.27 Y115.927 E5.9091
G1 X175.27 Y116.534 E.03895
G1 X83.183 Y116.534 E5.9091
G1 X83.183 Y117.141 E.03895
M73 P8 R128
M73 Q8 S128
G1 X175.27 Y117.141 E5.9091
G1 X175.27 Y117.748 E.03895
M73 P8 R127
M73 Q8 S127
G1 X83.183 Y117.748 E5.9091
G1 X83.183 Y118.355 E.03895
G1 X175.27 Y118.355 E5.9091
G1 X175.27 Y118.962 E.03895
G1 X83.183 Y118.962 E5.9091
G1 X83.183 Y119.569 E.03895
G1 X175.27 Y119.569 E5.9091
G1 X175.256 Y120.176 E.03896
G1 X83.197 Y120.176 E5.9073
G1 X83.804 Y120.783 E.05508
M73 P9 R126
M73 Q9 S126
G1 X174.649 Y120.783 E5.8294
G1 X174.042 Y121.39 E.05508
G1 X84.064 Y121.39 E5.77377
;LAYER_CHANGE
;Z:0.55
;HEIGHT:0.3
;BEFORE_LAYER_CHANGE
G92 E0.0
;0.55


;WIPE_START
G1 F3360
G1 X89.959 Y121.39 E-1.5
;WIPE_END
G1 Z.55 F720
;AFTER_LAYER_CHANGE
;0.55
G1 Z.95
G1 X172.567 Y119.232 F4200
G1 Z.55 F720
G1 E1.5 F900
;TYPE:Support material interface
;WIDTH:0.35
G1 F700.232
G1 X172.903 Y118.896 E.01913
G1 X172.903 Y118.447 E.01807
G1 X172.261 Y119.089 E.03655
G1 X171.811 Y119.089 E.01811
G1 X172.903 Y117.998 E.06214
G1 X172.903 Y117.548 E.01811
G1 X171.362 Y119.089 E.08773
G1 X170.912 Y119.089 E.01811
G1 X172.903 Y117.099 E.11332
G1 X172.903 Y116.649 E.01811
G1 X170.463 Y119.089 E.13891
G1 X170.014 Y119.089 E.01807
G1 X172.903 Y116.2 E.16447
G1 X172.903 Y115.75 E.01811
G1 X169.564 Y119.089 E.19009
G1 X169.115 Y119.089 E.01807
G1 X172.903 Y115.301 E.21565
G1 X172.903 Y114.851 E.01811
G1 X168.665 Y119.089 E.24127
G1 X168.216 Y119.089 E.01807
G1 X172.903 Y114.402 E.26683
G1 X172.903 Y113.953 E.01807
G1 X167.766 Y119.089 E.29242
G1 X167.317 Y119.089 E.01807
G1 X172.903 Y113.503 E.31801
G1 X172.903 Y113.054 E.01807
G1 X166.867 Y119.089 E.3436
G1 X166.418 Y119.089 E.01807
G1 X172.903 Y112.604 E.36919
G1 X172.903 Y112.155 E.01807
G1 X165.968 Y119.089 E.39478
G1 X165.519 Y119.089 E.01807
G1 X172.903 Y111.705 E.42037
G1 X172.903 Y111.256 E.01807
G1 X165.07 Y119.089 E.44593
G1 X164.62 Y119.089 E.01811
G1 X172.903 Y110.806 E.47155
G1 X172.903 Y110.357 E.01807
G1 X164.171 Y119.089 E.49711
G1 X163.721 Y119.089 E.01811
G1 X172.903 Y109.907 E.52273
G1 X172.903 Y109.458 E.01807
G1 X163.272 Y119.089 E.54829
G1 X162.822 Y119.089 E.01811
G1 X172.903 Y109.009 E.57388
G1 X172.903 Y108.559 E.01811
G1 X162.373 Y119.089 E.59947
G1 X161.923 Y119.089 E.01811
G1 X172.903 Y108.11 E.62506
G1 X172.903 Y107.66 E.01811
G1 X161.474 Y119.089 E.65065
G1 X161.025 Y119.089 E.01807
G1 X172.903 Y107.211 E.67621
G1 X172.903 Y106.761 E.01811
G1 X160.575 Y119.089 E.70183
G1 X160.126 Y119.089 E.01807
M73 P9 R125
M73 Q9 S125
G1 X172.903 Y106.312 E.72739
G1 X172.903 Y105.862 E.01811
G1 X159.676 Y119.089 E.753
G1 X159.227 Y119.089 E.01807
G1 X172.903 Y105.413 E.77857
G1 X172.903 Y104.964 E.01807
G1 X158.777 Y119.089 E.80416
G1 X158.328 Y119.089 E.01807
G1 X172.903 Y104.514 E.82975
G1 X172.903 Y104.065 E.01807
G1 X157.878 Y119.089 E.85534
G1 X157.429 Y119.089 E.01807
G1 X172.903 Y103.615 E.88093
G1 X172.903 Y103.166 E.01807
G1 X156.979 Y119.089 E.90652
G1 X156.53 Y119.089 E.01807
G1 X172.903 Y102.716 E.9321
G1 X172.903 Y102.267 E.01807
G1 X156.081 Y119.089 E.95767
G1 X155.631 Y119.089 E.01811
G1 X172.903 Y101.817 E.98328
G1 X172.903 Y101.368 E.01807
G1 X155.182 Y119.089 E1.00885
G1 X154.732 Y119.089 E.01811
G1 X172.903 Y100.919 E1.03444
G1 X172.903 Y100.469 E.01811
G1 X154.283 Y119.089 E1.06003
G1 X153.833 Y119.089 E.01811
G1 X172.903 Y100.02 E1.08561
G1 X172.903 Y99.57 E.01811
G1 X153.384 Y119.089 E1.1112
G1 X152.934 Y119.089 E.01811
G1 X172.903 Y99.121 E1.13679
G1 X172.903 Y98.671 E.01811
M73 P10 R125
M73 Q10 S125
G1 X152.485 Y119.089 E1.16238
G1 X152.036 Y119.089 E.01807
G1 X172.903 Y98.222 E1.18795
G1 X172.903 Y97.772 E.01811
G1 X151.586 Y119.089 E1.21356
G1 X151.137 Y119.089 E.01807
G1 X172.903 Y97.323 E1.23912
G1 X172.903 Y96.873 E.01811
G1 X150.687 Y119.089 E1.26474
G1 X150.238 Y119.089 E.01807
G1 X172.903 Y96.424 E1.2903
G1 X172.903 Y95.975 E.01807
G1 X149.788 Y119.089 E1.31589
G1 X149.339 Y119.089 E.01807
G1 X172.903 Y95.525 E1.34148
G1 X172.903 Y95.076 E.01807
G1 X148.889 Y119.089 E1.36707
G1 X148.44 Y119.089 E.01807
M73 P10 R124
M73 Q10 S124
G1 X172.903 Y94.626 E1.39266
G1 X172.903 Y94.177 E.01807
G1 X147.99 Y119.089 E1.41825
G1 X147.541 Y119.089 E.01807
G1 X172.903 Y93.727 E1.44384
G1 X172.903 Y93.278 E.01807
G1 X147.092 Y119.089 E1.4694
G1 X146.642 Y119.089 E.01811
G1 X172.903 Y92.828 E1.49502
G1 X172.903 Y92.379 E.01807
G1 X146.193 Y119.089 E1.52058
G1 X145.743 Y119.089 E.01811
G1 X172.903 Y91.93 E1.54617
G1 X172.903 Y91.48 E.01811
G1 X145.294 Y119.089 E1.57176
G1 X144.844 Y119.089 E.01811
G1 X172.903 Y91.031 E1.59735
G1 X172.903 Y90.911 E.00483
G1 X172.573 Y90.911 E.01328
G1 X144.395 Y119.089 E1.60416
G1 X143.945 Y119.089 E.01811
G1 X172.124 Y90.911 E1.60418
G1 X171.674 Y90.911 E.01811
G1 X143.496 Y119.089 E1.60416
G1 X143.047 Y119.089 E.01807
G1 X171.225 Y90.911 E1.60416
G1 X170.775 Y90.911 E.01811
G1 X142.597 Y119.089 E1.60416
G1 X142.148 Y119.089 E.01807
G1 X170.326 Y90.911 E1.60416
G1 X169.876 Y90.911 E.01811
G1 X141.698 Y119.089 E1.60416
G1 X141.249 Y119.089 E.01807
G1 X169.427 Y90.911 E1.60416
G1 X168.977 Y90.911 E.01811
M73 P11 R124
M73 Q11 S124
G1 X140.799 Y119.089 E1.60416
G1 X140.35 Y119.089 E.01807
M73 P11 R123
M73 Q11 S123
G1 X168.528 Y90.911 E1.60416
G1 X168.079 Y90.911 E.01807
G1 X139.9 Y119.089 E1.60418
G1 X139.451 Y119.089 E.01807
G1 X167.629 Y90.911 E1.60416
G1 X167.18 Y90.911 E.01807
G1 X139.001 Y119.089 E1.60418
G1 X138.552 Y119.089 E.01807
G1 X166.73 Y90.911 E1.60416
G1 X166.281 Y90.911 E.01807
G1 X138.103 Y119.089 E1.60416
G1 X137.653 Y119.089 E.01811
G1 X165.831 Y90.911 E1.60416
G1 X165.382 Y90.911 E.01807
G1 X137.204 Y119.089 E1.60416
G1 X136.754 Y119.089 E.01811
G1 X164.932 Y90.911 E1.60416
G1 X164.483 Y90.911 E.01807
G1 X136.305 Y119.089 E1.60416
G1 X135.855 Y119.089 E.01811
G1 X164.033 Y90.911 E1.60416
G1 X163.584 Y90.911 E.01807
G1 X135.406 Y119.089 E1.60416
G1 X134.956 Y119.089 E.01811
G1 X163.135 Y90.911 E1.60418
G1 X162.685 Y90.911 E.01811
G1 X134.507 Y119.089 E1.60416
G1 X134.058 Y119.089 E.01807
G1 X162.236 Y90.911 E1.60416
G1 X161.786 Y90.911 E.01811
G1 X133.608 Y119.089 E1.60416
G1 X133.159 Y119.089 E.01807
G1 X161.337 Y90.911 E1.60416
G1 X160.887 Y90.911 E.01811
G1 X132.709 Y119.089 E1.60416
G1 X132.26 Y119.089 E.01807
M73 P11 R122
M73 Q11 S122
G1 X160.438 Y90.911 E1.60416
G1 X159.988 Y90.911 E.01811
G1 X131.81 Y119.089 E1.60416
G1 X131.361 Y119.089 E.01807
G1 X159.539 Y90.911 E1.60416
G1 X159.09 Y90.911 E.01807
G1 X130.911 Y119.089 E1.60418
G1 X130.462 Y119.089 E.01807
G1 X158.64 Y90.911 E1.60416
G1 X158.191 Y90.911 E.01807
G1 X130.012 Y119.089 E1.60418
G1 X129.563 Y119.089 E.01807
M73 P12 R122
M73 Q12 S122
G1 X157.741 Y90.911 E1.60416
G1 X157.292 Y90.911 E.01807
G1 X129.114 Y119.089 E1.60416
G1 X128.664 Y119.089 E.01811
G1 X156.842 Y90.911 E1.60416
G1 X156.393 Y90.911 E.01807
G1 X128.215 Y119.089 E1.60416
G1 X127.765 Y119.089 E.01811
G1 X155.943 Y90.911 E1.60416
G1 X155.494 Y90.911 E.01807
G1 X127.316 Y119.089 E1.60416
G1 X126.866 Y119.089 E.01811
G1 X155.044 Y90.911 E1.60416
G1 X154.595 Y90.911 E.01807
G1 X126.417 Y119.089 E1.60416
G1 X125.967 Y119.089 E.01811
G1 X154.146 Y90.911 E1.60418
G1 X153.696 Y90.911 E.01811
G1 X125.518 Y119.089 E1.60416
G1 X125.069 Y119.089 E.01807
G1 X153.247 Y90.911 E1.60416
G1 X152.797 Y90.911 E.01811
M73 P12 R121
M73 Q12 S121
G1 X124.619 Y119.089 E1.60416
G1 X124.17 Y119.089 E.01807
G1 X152.348 Y90.911 E1.60416
G1 X151.898 Y90.911 E.01811
G1 X123.72 Y119.089 E1.60416
G1 X123.271 Y119.089 E.01807
G1 X151.449 Y90.911 E1.60416
G1 X150.999 Y90.911 E.01811
G1 X122.821 Y119.089 E1.60416
G1 X122.372 Y119.089 E.01807
G1 X150.55 Y90.911 E1.60416
G1 X150.101 Y90.911 E.01807
G1 X121.922 Y119.089 E1.60418
G1 X121.473 Y119.089 E.01807
G1 X149.651 Y90.911 E1.60416
G1 X149.202 Y90.911 E.01807
G1 X121.023 Y119.089 E1.60418
G1 X120.574 Y119.089 E.01807
G1 X148.752 Y90.911 E1.60416
G1 X148.303 Y90.911 E.01807
G1 X120.125 Y119.089 E1.60416
G1 X119.675 Y119.089 E.01811
G1 X147.853 Y90.911 E1.60416
G1 X147.404 Y90.911 E.01807
G1 X119.226 Y119.089 E1.60416
G1 X118.776 Y119.089 E.01811
M73 P13 R121
M73 Q13 S121
G1 X146.954 Y90.911 E1.60416
G1 X146.505 Y90.911 E.01807
G1 X118.327 Y119.089 E1.60416
G1 X117.877 Y119.089 E.01811
G1 X146.055 Y90.911 E1.60416
G1 X145.606 Y90.911 E.01807
G1 X117.428 Y119.089 E1.60416
G1 X116.978 Y119.089 E.01811
M73 P13 R120
M73 Q13 S120
G1 X145.157 Y90.911 E1.60418
G1 X144.707 Y90.911 E.01811
G1 X116.529 Y119.089 E1.60416
G1 X116.08 Y119.089 E.01807
G1 X144.258 Y90.911 E1.60416
G1 X143.808 Y90.911 E.01811
G1 X115.63 Y119.089 E1.60416
G1 X115.181 Y119.089 E.01807
G1 X143.359 Y90.911 E1.60416
G1 X142.909 Y90.911 E.01811
G1 X114.731 Y119.089 E1.60416
G1 X114.282 Y119.089 E.01807
G1 X142.46 Y90.911 E1.60416
G1 X142.01 Y90.911 E.01811
G1 X113.832 Y119.089 E1.60416
G1 X113.383 Y119.089 E.01807
G1 X141.561 Y90.911 E1.60416
G1 X141.112 Y90.911 E.01807
G1 X112.933 Y119.089 E1.60418
G1 X112.484 Y119.089 E.01807
G1 X140.662 Y90.911 E1.60416
G1 X140.213 Y90.911 E.01807
G1 X112.034 Y119.089 E1.60418
G1 X111.585 Y119.089 E.01807
G1 X139.763 Y90.911 E1.60416
G1 X139.314 Y90.911 E.01807
G1 X111.136 Y119.089 E1.60416
G1 X110.686 Y119.089 E.01811
G1 X138.864 Y90.911 E1.60416
G1 X138.415 Y90.911 E.01807
G1 X110.237 Y119.089 E1.60416
G1 X109.787 Y119.089 E.01811
G1 X137.965 Y90.911 E1.60416
G1 X137.516 Y90.911 E.01807
G1 X109.338 Y119.089 E1.60416
G1 X108.888 Y119.089 E.01811
M73 P13 R119
M73 Q13 S119
G1 X137.066 Y90.911 E1.60416
G1 X136.617 Y90.911 E.01807
G1 X108.439 Y119.089 E1.60416
G1 X107.989 Y119.089 E.01811
M73 P14 R119
M73 Q14 S119
G1 X136.168 Y90.911 E1.60418
G1 X135.718 Y90.911 E.01811
G1 X107.54 Y119.089 E1.60416
G1 X107.091 Y119.089 E.01807
G1 X135.269 Y90.911 E1.60416
G1 X134.819 Y90.911 E.01811
G1 X106.641 Y119.089 E1.60416
G1 X106.192 Y119.089 E.01807
G1 X134.37 Y90.911 E1.60416
G1 X133.92 Y90.911 E.01811
G1 X105.742 Y119.089 E1.60416
G1 X105.293 Y119.089 E.01807
G1 X133.471 Y90.911 E1.60416
G1 X133.021 Y90.911 E.01811
G1 X104.843 Y119.089 E1.60416
G1 X104.394 Y119.089 E.01807
G1 X132.572 Y90.911 E1.60416
