; generated by PrusaSlicer 2.8.0+win64 on 2024-07-23 at 01:28:58 UTC


;
;
; 

; external perimeters extrusion width = 0.60mm
; perimeters extrusion width = 0.60mm
; infill extrusion width = 0.60mm
; solid infill extrusion width = 0.60mm
; top infill extrusion width = 0.60mm
; support material extrusion width = 0.35mm
; first layer extrusion width = 0.60mm

M73 P0 R66
M73 Q0 S66
M201 X1000 Y1000 Z200 E5000 ; sets maximum accelerations, mm/sec^2
M203 X200 Y200 Z12 E120 ; sets maximum feedrates, mm / sec
M204 S1250 T1250 ; sets acceleration (S) and retract acceleration (R), mm/sec^2
M205 X8.00 Y8.00 Z0.40 E4.50 ; sets the jerk limits, mm/sec
M205 S0 T0 ; sets the minimum extruding and travel feed rate, mm/sec

; printing object Test24 id:0 copy 0
; stop printing object Test24 id:0 copy 0

;TYPE:Custom
M862.3 P "MK3S" ; printer model check
M862.1 P0.4 ; nozzle diameter check
M115 U3.14.0 ; tell printer latest fw version
G90 ; use absolute coordinates
M83 ; extruder relative mode
M104 S235 ; set extruder temp
M140 S50 ; set bed temp
M190 S50 ; wait for bed temp
M109 S235 ; wait for extruder temp
G28 W ; home all without mesh bed level
G80 X101.506 Y81.5057 W46.9886 H46.9886 ; mesh bed levelling

G1 Z0.2 F720
G1 Y-3 F1000 ; go outside print area
G92 E0
G1 X60 E9 F1000 ; intro line
G1 X100 E12.5 F1000 ; intro line

G92 E0
M221 S95

; Don't change E values below. Excessive value can damage the printer.

G21 ; set units to millimeters
G90 ; use absolute coordinates
M83 ; use relative distances for extrusion
; Filament gcode
M107
;LAYER_CHANGE
;Z:0.25
;HEIGHT:0.25
G1 E-1.5 F900
G1 Z.65 F720
G1 X103.616 Y90.833 F4200
G1 Z.25 F720
G1 E1.5 F900
M204 S300
;TYPE:Skirt/Brim
;WIDTH:0.6
G1 F439.279
G1 X110.833 Y83.616 E.66652
G1 X112.667 Y82.344 E.14576
G1 X115.269 Y81.779 E.17388
G1 X134.731 Y81.779 E1.27095
G1 X136.926 Y82.176 E.14567
G1 X139.167 Y83.616 E.17396
G1 X146.384 Y90.833 E.66652
G1 X147.656 Y92.667 E.14576
G1 X148.221 Y95.269 E.17388
G1 X148.221 Y114.731 E1.27095
G1 X147.824 Y116.926 E.14567
G1 X146.384 Y119.167 E.17396
G1 X139.167 Y126.384 E.66652
G1 X137.333 Y127.656 E.14576
G1 X134.731 Y128.221 E.17388
G1 X115.269 Y128.221 E1.27095
G1 X113.074 Y127.824 E.14567
G1 X110.833 Y126.384 E.17396
G1 X103.616 Y119.167 E.66652
G1 X102.344 Y117.333 E.14576
G1 X101.779 Y114.731 E.17388
G1 X101.779 Y95.269 E1.27095
G1 X102.176 Y93.074 E.14567
G1 X103.584 Y90.884 E.17002
;WIPE_START
G1 F3360
G1 X103.616 Y90.833 E-.01532
G1 X107.742 Y86.708 E-1.48468
;WIPE_END
G1 Z.65 F720
; printing object Test24 id:0 copy 0
G1 X136.312 Y89.634 F4200
G1 Z.25 F720
G1 E1.5 F900
;TYPE:Support material
G1 F439.279
G1 X136.312 Y90.87 E.08072
G1 X137.549 Y90.87 E.08078
G1 X139.13 Y92.451 E.14601
G1 X139.13 Y93.688 E.08078
G1 X140.366 Y93.688 E.08072
G1 X141.948 Y95.269 E.14606
G1 X141.948 Y114.731 E1.27095
G1 X140.366 Y116.312 E.14606
G1 X139.13 Y116.312 E.08072
G1 X139.13 Y117.549 E.08078
G1 X137.549 Y119.13 E.14601
G1 X136.312 Y119.13 E.08078
G1 X136.312 Y120.366 E.08072
M73 P0 R65
M73 Q0 S65
G1 X134.731 Y121.948 E.14606
G1 X115.269 Y121.948 E1.27095
G1 X113.688 Y120.366 E.14606
G1 X113.688 Y119.13 E.08072
G1 X112.451 Y119.13 E.08078
G1 X110.87 Y117.549 E.14601
G1 X110.87 Y116.312 E.08078
G1 X109.634 Y116.312 E.08072
G1 X108.052 Y114.731 E.14606
M73 P1 R65
M73 Q1 S65
G1 X108.052 Y95.269 E1.27095
G1 X109.634 Y93.688 E.14606
G1 X110.87 Y93.688 E.08072
G1 X110.87 Y92.451 E.08078
G1 X112.451 Y90.87 E.14601
G1 X113.688 Y90.87 E.08078
G1 X113.688 Y89.634 E.08072
G1 X115.269 Y88.052 E.14606
G1 X134.731 Y88.052 E1.27095
G1 X136.254 Y89.576 E.1407
;WIPE_START
G1 F3360
G1 X134.731 Y88.052 E-.54826
G1 X130.991 Y88.052 E-.95174
;WIPE_END
G1 Z.65 F720
G1 X134.94 Y88.61 F4200
G1 Z.25 F720
G1 E1.5 F900
G1 F439.279
G1 X115.407 Y88.61 E1.27559
G1 X114.8 Y89.217 E.05606
G1 X135.2 Y89.217 E1.33221
G1 X135.807 Y89.824 E.05606
G1 X114.193 Y89.824 E1.41149
G1 X114.179 Y90.431 E.03965
G1 X135.821 Y90.431 E1.41332
G1 X135.821 Y91.038 E.03964
G1 X114.179 Y91.038 E1.41332
G1 X114.179 Y91.362 E.02116
G1 X112.655 Y91.362 E.09952
G1 X112.372 Y91.645 E.02614
G1 X137.628 Y91.645 E1.64933
G1 X138.235 Y92.252 E.05606
G1 X111.765 Y92.252 E1.72861
G1 X111.362 Y92.655 E.03722
G1 X111.362 Y92.859 E.01332
G1 X138.638 Y92.859 E1.78124
G1 X138.638 Y93.466 E.03964
G1 X111.362 Y93.466 E1.78124
G1 X111.362 Y94.073 E.03964
G1 X138.638 Y94.073 E1.78124
G1 X138.638 Y94.179 E.00692
M73 P2 R65
M73 Q2 S65
G1 X140.163 Y94.179 E.09959
G1 X140.663 Y94.68 E.04622
G1 X109.337 Y94.68 E2.04573
G1 X108.73 Y95.287 E.05606
G1 X141.27 Y95.287 E2.12501
G1 X141.456 Y95.473 E.01718
G1 X141.456 Y95.894 E.02749
G1 X108.544 Y95.894 E2.1493
G1 X108.544 Y96.501 E.03964
M73 P2 R64
M73 Q2 S64
G1 X141.456 Y96.501 E2.1493
G1 X141.456 Y97.108 E.03964
G1 X108.544 Y97.108 E2.1493
G1 X108.544 Y97.715 E.03964
G1 X141.456 Y97.715 E2.1493
G1 X141.456 Y98.322 E.03964
G1 X108.544 Y98.322 E2.1493
G1 X108.544 Y98.929 E.03964
G1 X141.456 Y98.929 E2.1493
G1 X141.456 Y99.537 E.03971
G1 X108.544 Y99.537 E2.1493
G1 X108.544 Y100.144 E.03964
M73 P3 R64
M73 Q3 S64
G1 X141.456 Y100.144 E2.1493
G1 X141.456 Y100.751 E.03964
G1 X108.544 Y100.751 E2.1493
G1 X108.544 Y101.358 E.03964
G1 X141.456 Y101.358 E2.1493
G1 X141.456 Y101.965 E.03964
G1 X108.544 Y101.965 E2.1493
G1 X108.544 Y102.572 E.03964
G1 X141.456 Y102.572 E2.1493
G1 X141.456 Y103.179 E.03964
G1 X108.544 Y103.179 E2.1493
G1 X108.544 Y103.786 E.03964
G1 X141.456 Y103.786 E2.1493
G1 X141.456 Y104.393 E.03964
G1 X108.544 Y104.393 E2.1493
G1 X108.544 Y105 E.03964
M73 P4 R63
M73 Q4 S63
G1 X141.456 Y105 E2.1493
G1 X141.456 Y105.607 E.03964
G1 X108.544 Y105.607 E2.1493
G1 X108.544 Y106.214 E.03964
G1 X141.456 Y106.214 E2.1493
G1 X141.456 Y106.821 E.03964
G1 X108.544 Y106.821 E2.1493
G1 X108.544 Y107.428 E.03964
G1 X141.456 Y107.428 E2.1493
G1 X141.456 Y108.035 E.03964
G1 X108.544 Y108.035 E2.1493
G1 X108.544 Y108.642 E.03964
G1 X141.456 Y108.642 E2.1493
G1 X141.456 Y109.249 E.03964
G1 X108.544 Y109.249 E2.1493
G1 X108.544 Y109.856 E.03964
G1 X141.456 Y109.856 E2.1493
G1 X141.456 Y110.463 E.03964
M73 P5 R63
M73 Q5 S63
G1 X108.544 Y110.463 E2.1493
G1 X108.544 Y111.071 E.03971
G1 X141.456 Y111.071 E2.1493
G1 X141.456 Y111.678 E.03964
G1 X108.544 Y111.678 E2.1493
G1 X108.544 Y112.285 E.03964
G1 X141.456 Y112.285 E2.1493
G1 X141.456 Y112.892 E.03964
M73 P5 R62
M73 Q5 S62
G1 X108.544 Y112.892 E2.1493
G1 X108.544 Y113.499 E.03964
G1 X141.456 Y113.499 E2.1493
G1 X141.456 Y114.106 E.03964
G1 X108.544 Y114.106 E2.1493
G1 X108.544 Y114.527 E.02749
G1 X108.73 Y114.713 E.01718
G1 X141.27 Y114.713 E2.12501
G1 X140.663 Y115.32 E.05606
G1 X109.337 Y115.32 E2.04573
G1 X109.837 Y115.821 E.04622
M73 P6 R62
M73 Q6 S62
G1 X111.362 Y115.821 E.09959
G1 X111.362 Y115.927 E.00692
G1 X138.638 Y115.927 E1.78124
G1 X138.638 Y116.534 E.03964
G1 X111.362 Y116.534 E1.78124
G1 X111.362 Y117.141 E.03964
G1 X138.638 Y117.141 E1.78124
G1 X138.638 Y117.345 E.01332
G1 X138.235 Y117.748 E.03722
G1 X111.765 Y117.748 E1.72861
G1 X112.372 Y118.355 E.05606
G1 X137.628 Y118.355 E1.64933
G1 X137.345 Y118.638 E.02614
G1 X135.821 Y118.638 E.09952
G1 X135.821 Y118.962 E.02116
G1 X114.179 Y118.962 E1.41332
G1 X114.179 Y119.569 E.03964
G1 X135.821 Y119.569 E1.41332
G1 X135.807 Y120.176 E.03965
G1 X114.193 Y120.176 E1.41149
G1 X114.8 Y120.783 E.05606
G1 X135.2 Y120.783 E1.33221
G1 X134.593 Y121.39 E.05606
G1 X115.06 Y121.39 E1.27559
;LAYER_CHANGE
;Z:0.55
;HEIGHT:0.3
;BEFORE_LAYER_CHANGE
G92 E0.0
;0.55


;WIPE_START
G1 F3360
M73 P6 R61
M73 Q6 S61
G1 X120.955 Y121.39 E-1.5
;WIPE_END
G1 Z.55 F720
;AFTER_LAYER_CHANGE
;0.55
G1 Z.95
G1 X112.5 Y112.5 F4200
G1 X109.5 Y115.5
G1 X108 Y114
G1 X108 Y99
G1 X110.768 Y98.782
G1 Z.55 F720
G1 E1.5 F900
;TYPE:Support material interface
;WIDTH:0.35
G1 F700.232
G1 X113.003 Y96.547 E.12949
G1 X112.554 Y96.547 E.01839
G1 X110.911 Y98.19 E.09519
G1 X110.911 Y97.74 E.01844
G1 X112.105 Y96.547 E.06915
G1 X111.655 Y96.547 E.01844
G1 X110.911 Y97.291 E.04311
G1 X110.911 Y96.841 E.01844
G1 X111.349 Y96.404 E.02535
;WIPE_START
G1 F3360
G1 X110.911 Y96.841 E-.15744
G1 X110.911 Y97.291 E-.11451
G1 X111.655 Y96.547 E-.26774
G1 X112.105 Y96.547 E-.11451
G1 X110.911 Y97.74 E-.4295
G1 X110.911 Y98.19 E-.11451
G1 X111.75 Y97.351 E-.30179
;WIPE_END
G1 Z.95 F720
G1 X113.586 Y95.964 F4200
G1 Z.55 F720
G1 E1.5 F900
G1 F700.232
G1 X115.821 Y93.729 E.12949
G1 X115.372 Y93.729 E.01839
M73 P7 R61
M73 Q7 S61
G1 X113.729 Y95.372 E.09519
G1 X113.729 Y94.922 E.01844
G1 X114.922 Y93.729 E.06912
G1 X114.473 Y93.729 E.01839
G1 X113.729 Y94.473 E.04311
G1 X113.729 Y94.023 E.01844
G1 X114.166 Y93.586 E.02532
;WIPE_START
G1 F3360
G1 X113.729 Y94.023 E-.15726
G1 X113.729 Y94.473 E-.11451
G1 X114.473 Y93.729 E-.26774
G1 X114.922 Y93.729 E-.11425
G1 X113.729 Y94.922 E-.42932
G1 X113.729 Y95.372 E-.11451
G1 X114.569 Y94.532 E-.30241
;WIPE_END
G1 Z.95 F720
G1 X116.404 Y91.349 F4200
G1 Z.55 F720
G1 E1.5 F900
G1 F700.232
G1 X116.841 Y90.911 E.02535
G1 X117.291 Y90.911 E.01844
G1 X116.547 Y91.655 E.04311
G1 X116.547 Y92.105 E.01844
G1 X117.74 Y90.911 E.06915
G1 X118.19 Y90.911 E.01844
G1 X116.547 Y92.554 E.09519
G1 X116.547 Y93.003 E.01839
G1 X118.639 Y90.911 E.1212
G1 X119.088 Y90.911 E.01839
G1 X110.911 Y99.088 E.47375
G1 X110.911 Y99.538 E.01844
G1 X119.538 Y90.911 E.49982
G1 X119.987 Y90.911 E.01839
G1 X110.911 Y99.987 E.52584
G1 X110.911 Y100.437 E.01844
G1 X120.437 Y90.911 E.55191
G1 X120.886 Y90.911 E.01839
G1 X110.911 Y100.886 E.57792
G1 X110.911 Y101.336 E.01844
G1 X121.336 Y90.911 E.60399
G1 X121.785 Y90.911 E.01839
G1 X110.911 Y101.785 E.63001
G1 X110.911 Y102.235 E.01844
G1 X122.235 Y90.911 E.65608
G1 X122.684 Y90.911 E.01839
G1 X110.911 Y102.684 E.68209
G1 X110.911 Y103.134 E.01844
G1 X123.134 Y90.911 E.70816
G1 X123.583 Y90.911 E.01839
G1 X110.911 Y103.583 E.73418
G1 X110.911 Y104.032 E.01839
G1 X124.032 Y90.911 E.76019
G1 X124.482 Y90.911 E.01844
G1 X110.911 Y104.482 E.78626
G1 X110.911 Y104.931 E.01839
G1 X124.931 Y90.911 E.81228
G1 X125.381 Y90.911 E.01844
G1 X110.911 Y105.381 E.83835
G1 X110.911 Y105.83 E.01839
G1 X125.83 Y90.911 E.86436
G1 X126.28 Y90.911 E.01844
G1 X110.911 Y106.28 E.89043
G1 X110.911 Y106.729 E.01839
G1 X126.729 Y90.911 E.91645
G1 X127.179 Y90.911 E.01844
G1 X110.911 Y107.179 E.94252
G1 X110.911 Y107.628 E.01839
G1 X127.628 Y90.911 E.96853
G1 X128.077 Y90.911 E.01839
G1 X110.911 Y108.077 E.99455
G1 X110.911 Y108.527 E.01844
G1 X128.527 Y90.911 E1.02062
G1 X128.976 Y90.911 E.01839
G1 X110.911 Y108.976 E1.04663
G1 X110.911 Y109.426 E.01844
M73 P8 R61
M73 Q8 S61
G1 X129.426 Y90.911 E1.0727
G1 X129.875 Y90.911 E.01839
G1 X110.911 Y109.875 E1.09872
G1 X110.911 Y110.325 E.01844
G1 X130.325 Y90.911 E1.12479
G1 X130.774 Y90.911 E.01839
G1 X110.911 Y110.774 E1.1508
G1 X110.911 Y111.224 E.01844
G1 X131.224 Y90.911 E1.17687
G1 X131.673 Y90.911 E.01839
G1 X110.911 Y111.673 E1.20289
G1 X110.911 Y112.123 E.01844
G1 X132.123 Y90.911 E1.22896
G1 X132.572 Y90.911 E.01839
M73 P8 R60
M73 Q8 S60
G1 X110.911 Y112.572 E1.25497
G1 X110.911 Y113.021 E.01839
G1 X133.021 Y90.911 E1.28099
G1 X133.453 Y90.911 E.0177
G1 X110.928 Y113.453 E1.30552
G1 X111.378 Y113.453 E.01844
G1 X133.453 Y91.378 E1.27896
G1 X133.453 Y91.827 E.01839
G1 X111.827 Y113.453 E1.25295
G1 X112.277 Y113.453 E.01844
G1 X133.453 Y92.277 E1.22687
G1 X133.453 Y92.726 E.01839
G1 X112.726 Y113.453 E1.20086
G1 X113.176 Y113.453 E.01844
G1 X133.453 Y93.176 E1.17479
G1 X133.453 Y93.625 E.01839
G1 X113.625 Y113.453 E1.14877
G1 X113.729 Y113.453 E.00426
M73 P9 R60
M73 Q9 S60
G1 X113.729 Y113.799 E.01417
G1 X133.799 Y93.729 E1.1628
G1 X134.249 Y93.729 E.01844
G1 X113.729 Y114.249 E1.18887
G1 X113.729 Y114.698 E.01839
G1 X134.698 Y93.729 E1.21488
G1 X135.148 Y93.729 E.01844
G1 X113.729 Y115.148 E1.24095
G1 X113.729 Y115.597 E.01839
G1 X135.597 Y93.729 E1.26697
G1 X136.046 Y93.729 E.01839
G1 X113.729 Y116.046 E1.29298
G1 X113.729 Y116.271 E.00922
G1 X113.953 Y116.271 E.00918
G1 X136.271 Y93.953 E1.29304
G1 X136.271 Y94.403 E.01844
G1 X114.403 Y116.271 E1.26697
G1 X114.852 Y116.271 E.01839
G1 X136.271 Y94.852 E1.24095
G1 X136.271 Y95.302 E.01844
G1 X115.302 Y116.271 E1.21488
G1 X115.751 Y116.271 E.01839
G1 X136.271 Y95.751 E1.18887
G1 X136.271 Y96.201 E.01844
G1 X116.201 Y116.271 E1.1628
G1 X116.547 Y116.271 E.01417
G1 X116.547 Y116.375 E.00426
G1 X136.375 Y96.547 E1.14877
G1 X136.824 Y96.547 E.01839
G1 X116.547 Y116.824 E1.17479
G1 X116.547 Y117.274 E.01844
M73 P9 R59
M73 Q9 S59
G1 X137.274 Y96.547 E1.20086
G1 X137.723 Y96.547 E.01839
G1 X116.547 Y117.723 E1.22687
G1 X116.547 Y118.173 E.01844
M73 P10 R59
M73 Q10 S59
G1 X138.173 Y96.547 E1.25295
G1 X138.622 Y96.547 E.01839
G1 X116.547 Y118.622 E1.27896
G1 X116.547 Y119.071 E.01839
G1 X139.089 Y96.547 E1.30549
G1 X139.089 Y96.978 E.01766
G1 X116.978 Y119.089 E1.28104
G1 X117.428 Y119.089 E.01844
G1 X139.089 Y97.428 E1.25497
G1 X139.089 Y97.877 E.01839
G1 X117.877 Y119.089 E1.22896
G1 X118.327 Y119.089 E.01844
G1 X139.089 Y98.327 E1.20289
G1 X139.089 Y98.776 E.01839
G1 X118.776 Y119.089 E1.17687
G1 X119.226 Y119.089 E.01844
G1 X139.089 Y99.226 E1.1508
G1 X139.089 Y99.675 E.01839
G1 X119.675 Y119.089 E1.12479
G1 X120.125 Y119.089 E.01844
G1 X139.089 Y100.125 E1.09872
G1 X139.089 Y100.574 E.01839
G1 X120.574 Y119.089 E1.0727
G1 X121.023 Y119.089 E.01839
G1 X139.089 Y101.023 E1.04669
G1 X139.089 Y101.473 E.01844
G1 X121.473 Y119.089 E1.02062
G1 X121.922 Y119.089 E.01839
G1 X139.089 Y101.922 E.9946
G1 X139.089 Y102.372 E.01844
G1 X122.372 Y119.089 E.96853
G1 X122.821 Y119.089 E.01839
M73 P11 R59
M73 Q11 S59
G1 X139.089 Y102.821 E.94252
G1 X139.089 Y103.271 E.01844
G1 X123.271 Y119.089 E.91645
G1 X123.72 Y119.089 E.01839
G1 X139.089 Y103.72 E.89043
G1 X139.089 Y104.17 E.01844
G1 X124.17 Y119.089 E.86436
G1 X124.619 Y119.089 E.01839
G1 X139.089 Y104.619 E.83835
G1 X139.089 Y105.069 E.01844
G1 X125.069 Y119.089 E.81228
G1 X125.518 Y119.089 E.01839
G1 X139.089 Y105.518 E.78626
G1 X139.089 Y105.967 E.01839
G1 X125.967 Y119.089 E.76025
G1 X126.417 Y119.089 E.01844
M73 P11 R58
M73 Q11 S58
G1 X139.089 Y106.417 E.73418
G1 X139.089 Y106.866 E.01839
G1 X126.866 Y119.089 E.70816
G1 X127.316 Y119.089 E.01844
G1 X139.089 Y107.316 E.68209
G1 X139.089 Y107.765 E.01839
G1 X127.765 Y119.089 E.65608
G1 X128.215 Y119.089 E.01844
G1 X139.089 Y108.215 E.63001
G1 X139.089 Y108.664 E.01839
G1 X128.664 Y119.089 E.60399
G1 X129.114 Y119.089 E.01844
G1 X139.089 Y109.114 E.57792
G1 X139.089 Y109.563 E.01839
G1 X129.563 Y119.089 E.55191
G1 X130.012 Y119.089 E.01839
G1 X139.089 Y110.012 E.52589
G1 X139.089 Y110.462 E.01844
G1 X130.462 Y119.089 E.49982
G1 X130.911 Y119.089 E.01839
G1 X139.089 Y110.911 E.47381
G1 X139.089 Y111.361 E.01844
G1 X136.996 Y113.453 E.12123
G1 X137.446 Y113.453 E.01844
G1 X139.089 Y111.81 E.09519
G1 X139.089 Y112.26 E.01844
G1 X137.895 Y113.453 E.06915
G1 X138.345 Y113.453 E.01844
G1 X139.089 Y112.709 E.04311
G1 X139.089 Y113.159 E.01844
G1 X138.651 Y113.596 E.02535
;WIPE_START
G1 F3360
G1 X139.089 Y113.159 E-.15744
G1 X139.089 Y112.709 E-.11451
G1 X138.345 Y113.453 E-.26774
G1 X137.895 Y113.453 E-.11451
G1 X139.089 Y112.26 E-.4295
G1 X139.089 Y111.81 E-.11451
G1 X138.25 Y112.649 E-.30179
;WIPE_END
G1 Z.95 F720
G1 X136.414 Y114.036 F4200
G1 Z.55 F720
G1 E1.5 F900
G1 F700.232
G1 X134.179 Y116.271 E.12949
G1 X134.628 Y116.271 E.01839
G1 X136.271 Y114.628 E.09519
G1 X136.271 Y115.078 E.01844
G1 X135.078 Y116.271 E.06912
G1 X135.527 Y116.271 E.01839
G1 X136.271 Y115.527 E.04311
G1 X136.271 Y115.976 E.01839
G1 X135.833 Y116.414 E.02538
;WIPE_START
G1 F3360
G1 X136.271 Y115.976 E-.15762
G1 X136.271 Y115.527 E-.11425
G1 X135.527 Y116.271 E-.26774
G1 X135.078 Y116.271 E-.11425
G1 X136.271 Y115.078 E-.42932
G1 X136.271 Y114.628 E-.11451
G1 X135.431 Y115.468 E-.30231
;WIPE_END
G1 Z.95 F720
G1 X133.596 Y116.853 F4200
G1 Z.55 F720
G1 E1.5 F900
G1 F700.232
G1 X131.361 Y119.089 E.12952
G1 X131.81 Y119.089 E.01839
G1 X133.453 Y117.446 E.09519
G1 X133.453 Y117.895 E.01839
G1 X132.26 Y119.089 E.06915
G1 X132.709 Y119.089 E.01839
G1 X133.453 Y118.345 E.04311
G1 X133.453 Y118.794 E.01839
G1 X133.016 Y119.232 E.02535
;LAYER_CHANGE
;Z:0.8
