; generated by PrusaSlicer 2.8.0+win64 on 2024-07-08 at 08:09:48 UTC


;
;
; 

; external perimeters extrusion width = 0.60mm
; perimeters extrusion width = 0.60mm
; infill extrusion width = 0.60mm
; solid infill extrusion width = 0.60mm
; top infill extrusion width = 0.60mm
; support material extrusion width = 0.35mm
; first layer extrusion width = 0.60mm

M73 P0 R133
M73 Q0 S133
M201 X1000 Y1000 Z200 E5000 ; sets maximum accelerations, mm/sec^2
M203 X200 Y200 Z12 E120 ; sets maximum feedrates, mm / sec
M204 S1250 T1250 ; sets acceleration (S) and retract acceleration (R), mm/sec^2
M205 X8.00 Y8.00 Z0.40 E4.50 ; sets the jerk limits, mm/sec
M205 S0 T0 ; sets the minimum extruding and travel feed rate, mm/sec

; printing object Test30 id:0 copy 0
; stop printing object Test30 id:0 copy 0

;TYPE:Custom
M862.3 P "MK3S" ; printer model check
M862.1 P0.4 ; nozzle diameter check
M115 U3.13.3 ; tell printer latest fw version
G90 ; use absolute coordinates
M83 ; extruder relative mode
M104 S230 ; set extruder temp
M140 S50 ; set bed temp
M190 S50 ; wait for bed temp
M109 S230 ; wait for extruder temp
G28 W ; home all without mesh bed level
G80 X101.404 Y81.4039 W47.1923 H47.1923 ; mesh bed levelling

G1 Z0.2 F720
G1 Y-3 F1000 ; go outside print area
G92 E0
G1 X60 E9 F1000 ; intro line
G1 X100 E12.5 F1000 ; intro line

G92 E0
M221 S95

; Don't change E values below. Excessive value can damage the printer.

G21 ; set units to millimeters
G90 ; use absolute coordinates
M83 ; use relative distances for extrusion
; Filament gcode
M107
;LAYER_CHANGE
;Z:0.25
;HEIGHT:0.25
G1 E-1.5 F900
G1 Z.65 F720
G1 X103.514 Y89.523 F4200
G1 Z.25 F720
G1 E1.5 F900
M204 S300
;TYPE:Skirt/Brim
;WIDTH:0.6
G1 F439.279
G1 X109.523 Y83.514 E.48257
G1 X111.357 Y82.242 E.12674
G1 X113.999 Y81.677 E.15342
G1 X136.311 Y81.82 E1.26705
G1 X138.505 Y82.231 E.12676
G1 X140.707 Y83.657 E.14897
G1 X146.343 Y89.293 E.45262
G1 X147.615 Y91.126 E.1267
G1 X148.18 Y93.689 E.14904
G1 X148.323 Y116 E1.26699
G1 X147.94 Y118.199 E.12675
G1 X146.486 Y120.476 E.15342
G1 X140.476 Y126.486 E.48265
G1 X138.643 Y127.758 E.1267
G1 X136.041 Y128.323 E.1512
G1 X132.895 Y128.323 E.17865
G1 X113.905 Y128.175 E1.07841
G1 X113.474 Y128.157 E.0245
G1 X111.296 Y127.671 E.12672
G1 X109.307 Y126.339 E.13594
G1 X103.661 Y120.693 E.45342
G1 X102.395 Y118.856 E.12669
G1 X101.842 Y116.524 E.1361
G1 X101.82 Y115.885 E.03631
G1 X101.677 Y93.959 E1.24513
G1 X102.074 Y91.764 E.12667
G1 X103.482 Y89.574 E.14785
;WIPE_START
G1 F3360
G1 X103.514 Y89.523 E-.01532
G1 X107.64 Y85.398 E-1.48468
;WIPE_END
G1 Z.65 F720
; printing object Test30 id:0 copy 0
G1 X107.95 Y96.206 F4200
G1 Z.25 F720
G1 E1.5 F900
;TYPE:Support material interface
;WIDTH:0.35
G1 F809.855
G1 X110.428 Y93.729 E.10792
G1 X109.978 Y93.729 E.01386
G1 X108.093 Y95.614 E.08211
G1 X108.093 Y95.165 E.01383
G1 X109.529 Y93.729 E.06255
G1 X109.079 Y93.729 E.01386
G1 X108.093 Y94.715 E.04295
G1 X108.093 Y94.266 E.01383
G1 X108.63 Y93.729 E.02339
G1 X108.181 Y93.729 E.01383
G1 X107.95 Y93.959 E.01004
;WIPE_START
G1 F3360
G1 X108.181 Y93.729 E-.08295
G1 X108.63 Y93.729 E-.11425
G1 X108.093 Y94.266 E-.19325
G1 X108.093 Y94.715 E-.11425
G1 X109.079 Y93.729 E-.35483
G1 X109.529 Y93.729 E-.11451
G1 X108.093 Y95.165 E-.51677
G1 X108.093 Y95.201 E-.00919
;WIPE_END
G1 Z.65 F720
G1 X110.768 Y93.389 F4200
G1 Z.25 F720
G1 E1.5 F900
G1 F809.855
G1 X113.246 Y90.911 E.10794
G1 X112.796 Y90.911 E.01386
G1 X110.911 Y92.796 E.08211
G1 X110.911 Y92.347 E.01383
G1 X112.347 Y90.911 E.06255
G1 X111.897 Y90.911 E.01386
G1 X110.911 Y91.897 E.04295
G1 X110.911 Y91.448 E.01383
G1 X111.448 Y90.911 E.02339
G1 X110.998 Y90.911 E.01386
G1 X110.768 Y91.141 E.01002
;WIPE_START
G1 F3360
G1 X110.998 Y90.911 E-.08277
G1 X111.448 Y90.911 E-.11451
G1 X110.911 Y91.448 E-.19325
G1 X110.911 Y91.897 E-.11425
G1 X111.897 Y90.911 E-.35483
G1 X112.347 Y90.911 E-.11451
G1 X110.911 Y92.347 E-.51677
G1 X110.911 Y92.383 E-.00911
;WIPE_END
G1 Z.65 F720
G1 X113.959 Y87.95 F4200
G1 Z.25 F720
G1 E1.5 F900
G1 F809.855
G1 X113.729 Y88.181 E.01004
G1 X113.729 Y88.63 E.01383
G1 X114.266 Y88.093 E.02339
G1 X114.715 Y88.093 E.01383
G1 X113.729 Y89.079 E.04295
G1 X113.729 Y89.529 E.01386
G1 X115.165 Y88.093 E.06255
G1 X115.614 Y88.093 E.01383
G1 X113.729 Y89.978 E.08211
G1 X113.729 Y90.428 E.01386
G1 X116.063 Y88.093 E.10169
G1 X116.513 Y88.093 E.01386
G1 X108.093 Y96.513 E.36678
G1 X108.093 Y96.962 E.01383
G1 X116.962 Y88.093 E.38634
G1 X117.412 Y88.093 E.01386
G1 X108.093 Y97.412 E.40594
G1 X108.093 Y97.861 E.01383
G1 X117.861 Y88.093 E.4255
G1 X118.311 Y88.093 E.01386
G1 X108.093 Y98.311 E.4451
G1 X108.093 Y98.76 E.01383
G1 X118.76 Y88.093 E.46466
G1 X119.21 Y88.093 E.01386
G1 X108.093 Y99.21 E.48426
G1 X108.093 Y99.659 E.01383
G1 X119.659 Y88.093 E.50382
G1 X120.108 Y88.093 E.01383
G1 X108.093 Y100.108 E.52338
G1 X108.093 Y100.558 E.01386
G1 X120.558 Y88.093 E.54298
G1 X121.007 Y88.093 E.01383
G1 X108.093 Y101.007 E.56254
G1 X108.093 Y101.457 E.01386
G1 X121.457 Y88.093 E.58214
G1 X121.906 Y88.093 E.01383
G1 X108.093 Y101.906 E.6017
G1 X108.093 Y102.356 E.01386
M73 P0 R132
M73 Q0 S132
G1 X122.356 Y88.093 E.6213
G1 X122.805 Y88.093 E.01383
G1 X108.093 Y102.805 E.64086
G1 X108.093 Y103.255 E.01386
G1 X123.255 Y88.093 E.66046
G1 X123.704 Y88.093 E.01383
G1 X108.093 Y103.704 E.68002
G1 X108.093 Y104.154 E.01386
G1 X124.154 Y88.093 E.69963
G1 X124.603 Y88.093 E.01383
G1 X108.093 Y104.603 E.71918
G1 X108.093 Y105.052 E.01383
G1 X125.052 Y88.093 E.73874
G1 X125.502 Y88.093 E.01386
G1 X108.093 Y105.502 E.75835
G1 X108.093 Y105.951 E.01383
G1 X125.951 Y88.093 E.7779
G1 X126.401 Y88.093 E.01386
G1 X108.093 Y106.401 E.79751
G1 X108.093 Y106.85 E.01383
G1 X126.85 Y88.093 E.81707
G1 X127.3 Y88.093 E.01386
G1 X108.093 Y107.3 E.83667
G1 X108.093 Y107.749 E.01383
G1 X127.749 Y88.093 E.85623
G1 X128.199 Y88.093 E.01386
G1 X108.093 Y108.199 E.87583
G1 X108.093 Y108.648 E.01383
G1 X128.648 Y88.093 E.89539
G1 X129.097 Y88.093 E.01383
G1 X108.093 Y109.097 E.91495
G1 X108.093 Y109.547 E.01386
M73 P1 R132
M73 Q1 S132
G1 X129.547 Y88.093 E.93455
G1 X129.996 Y88.093 E.01383
G1 X108.093 Y109.996 E.95411
G1 X108.093 Y110.446 E.01386
G1 X130.446 Y88.093 E.97371
G1 X130.895 Y88.093 E.01383
G1 X108.093 Y110.895 E.99327
G1 X108.093 Y111.345 E.01386
G1 X131.345 Y88.093 E1.01287
G1 X131.794 Y88.093 E.01383
G1 X108.093 Y111.794 E1.03243
G1 X108.093 Y112.244 E.01386
G1 X132.244 Y88.093 E1.05203
G1 X132.693 Y88.093 E.01383
G1 X108.093 Y112.693 E1.07159
G1 X108.093 Y113.143 E.01386
G1 X133.143 Y88.093 E1.09119
G1 X133.592 Y88.093 E.01383
G1 X108.093 Y113.592 E1.11075
G1 X108.093 Y114.041 E.01383
G1 X134.041 Y88.093 E1.13031
G1 X134.491 Y88.093 E.01386
G1 X108.093 Y114.491 E1.14991
G1 X108.093 Y114.94 E.01383
M73 P1 R131
M73 Q1 S131
G1 X134.94 Y88.093 E1.16947
G1 X135.39 Y88.093 E.01386
G1 X108.093 Y115.39 E1.18907
G1 X108.093 Y115.839 E.01383
G1 X135.839 Y88.093 E1.20863
G1 X136.271 Y88.111 E.01332
G1 X108.111 Y116.271 E1.22666
G1 X108.56 Y116.271 E.01383
G1 X136.271 Y88.56 E1.20711
G1 X136.271 Y89.009 E.01383
G1 X109.009 Y116.271 E1.18755
G1 X109.459 Y116.271 E.01386
G1 X136.271 Y89.459 E1.16795
G1 X136.271 Y89.908 E.01383
G1 X109.908 Y116.271 E1.14839
G1 X110.358 Y116.271 E.01386
G1 X136.271 Y90.358 E1.12878
G1 X136.271 Y90.807 E.01383
G1 X110.807 Y116.271 E1.10923
G1 X110.911 Y116.271 E.0032
G1 X110.911 Y116.617 E.01066
G1 X136.617 Y90.911 E1.11977
G1 X137.066 Y90.911 E.01383
G1 X110.911 Y117.066 E1.13933
G1 X110.911 Y117.516 E.01386
G1 X137.516 Y90.911 E1.15893
G1 X137.965 Y90.911 E.01383
G1 X110.911 Y117.965 E1.17849
G1 X110.911 Y118.415 E.01386
G1 X138.415 Y90.911 E1.19809
G1 X138.864 Y90.911 E.01383
G1 X110.911 Y118.864 E1.21765
G1 X110.911 Y119.089 E.00693
G1 X111.136 Y119.089 E.00693
G1 X139.089 Y91.136 E1.21765
G1 X139.089 Y91.585 E.01383
M73 P2 R131
M73 Q2 S131
G1 X111.585 Y119.089 E1.19809
G1 X112.034 Y119.089 E.01383
G1 X139.089 Y92.034 E1.17853
G1 X139.089 Y92.484 E.01386
G1 X112.484 Y119.089 E1.15893
G1 X112.933 Y119.089 E.01383
G1 X139.089 Y92.933 E1.13937
G1 X139.089 Y93.383 E.01386
M73 P2 R130
M73 Q2 S130
G1 X113.383 Y119.089 E1.11977
G1 X113.729 Y119.089 E.01066
G1 X113.729 Y119.193 E.0032
G1 X139.193 Y93.729 E1.10923
G1 X139.642 Y93.729 E.01383
G1 X113.729 Y119.642 E1.12878
G1 X113.729 Y120.092 E.01386
G1 X140.092 Y93.729 E1.14839
G1 X140.541 Y93.729 E.01383
G1 X113.729 Y120.541 E1.16795
G1 X113.729 Y120.99 E.01383
G1 X140.99 Y93.729 E1.1875
G1 X141.44 Y93.729 E.01386
G1 X113.729 Y121.44 E1.20711
G1 X113.729 Y121.889 E.01383
G1 X141.907 Y93.729 E1.22706
G1 X141.907 Y94.161 E.01331
G1 X114.161 Y121.907 E1.20863
G1 X114.61 Y121.907 E.01383
G1 X141.907 Y94.61 E1.18907
G1 X141.907 Y95.06 E.01386
G1 X115.06 Y121.907 E1.16947
G1 X115.509 Y121.907 E.01383
G1 X141.907 Y95.509 E1.14991
G1 X141.907 Y95.958 E.01383
G1 X115.958 Y121.907 E1.13035
G1 X116.408 Y121.907 E.01386
G1 X141.907 Y96.408 E1.11075
G1 X141.907 Y96.857 E.01383
G1 X116.857 Y121.907 E1.09119
G1 X117.307 Y121.907 E.01386
G1 X141.907 Y97.307 E1.07159
G1 X141.907 Y97.756 E.01383
G1 X117.756 Y121.907 E1.05203
G1 X118.206 Y121.907 E.01386
G1 X141.907 Y98.206 E1.03243
G1 X141.907 Y98.655 E.01383
G1 X118.655 Y121.907 E1.01287
G1 X119.105 Y121.907 E.01386
G1 X141.907 Y99.105 E.99327
G1 X141.907 Y99.554 E.01383
G1 X119.554 Y121.907 E.97371
G1 X120.003 Y121.907 E.01383
G1 X141.907 Y100.003 E.95415
G1 X141.907 Y100.453 E.01386
M73 P2 R129
M73 Q2 S129
G1 X120.453 Y121.907 E.93455
G1 X120.902 Y121.907 E.01383
G1 X141.907 Y100.902 E.91499
G1 X141.907 Y101.352 E.01386
G1 X121.352 Y121.907 E.89539
G1 X121.801 Y121.907 E.01383
G1 X141.907 Y101.801 E.87583
G1 X141.907 Y102.251 E.01386
G1 X122.251 Y121.907 E.85623
M73 P3 R129
M73 Q3 S129
G1 X122.7 Y121.907 E.01383
G1 X141.907 Y102.7 E.83667
G1 X141.907 Y103.15 E.01386
G1 X123.15 Y121.907 E.81707
G1 X123.599 Y121.907 E.01383
G1 X141.907 Y103.599 E.79751
G1 X141.907 Y104.049 E.01386
G1 X124.049 Y121.907 E.7779
G1 X124.498 Y121.907 E.01383
G1 X141.907 Y104.498 E.75835
G1 X141.907 Y104.947 E.01383
G1 X124.947 Y121.907 E.73879
G1 X125.397 Y121.907 E.01386
G1 X141.907 Y105.397 E.71918
G1 X141.907 Y105.846 E.01383
G1 X125.846 Y121.907 E.69963
G1 X126.296 Y121.907 E.01386
G1 X141.907 Y106.296 E.68002
G1 X141.907 Y106.745 E.01383
G1 X126.745 Y121.907 E.66046
G1 X127.195 Y121.907 E.01386
G1 X141.907 Y107.195 E.64086
G1 X141.907 Y107.644 E.01383
G1 X127.644 Y121.907 E.6213
G1 X128.094 Y121.907 E.01386
G1 X141.907 Y108.094 E.6017
G1 X141.907 Y108.543 E.01383
G1 X128.543 Y121.907 E.58214
G1 X128.992 Y121.907 E.01383
G1 X141.907 Y108.992 E.56258
G1 X141.907 Y109.442 E.01386
G1 X129.442 Y121.907 E.54298
G1 X129.891 Y121.907 E.01383
G1 X141.907 Y109.891 E.52342
G1 X141.907 Y110.341 E.01386
G1 X130.341 Y121.907 E.50382
G1 X130.79 Y121.907 E.01383
G1 X141.907 Y110.79 E.48426
G1 X141.907 Y111.24 E.01386
G1 X131.24 Y121.907 E.46466
G1 X131.689 Y121.907 E.01383
G1 X141.907 Y111.689 E.4451
G1 X141.907 Y112.139 E.01386
G1 X132.139 Y121.907 E.4255
G1 X132.588 Y121.907 E.01383
G1 X141.907 Y112.588 E.40594
G1 X141.907 Y113.038 E.01386
G1 X132.895 Y122.05 E.39257
;WIPE_START
G1 F3360
G1 X137.063 Y117.882 E-1.5
;WIPE_END
G1 Z.65 F720
G1 X138.858 Y119.232 F4200
G1 Z.25 F720
G1 E1.5 F900
G1 F809.855
G1 X139.089 Y119.001 E.01006
G1 X139.089 Y118.552 E.01383
G1 X138.552 Y119.089 E.02339
G1 X138.103 Y119.089 E.01383
G1 X139.089 Y118.103 E.04295
G1 X139.089 Y117.653 E.01386
G1 X137.653 Y119.089 E.06255
G1 X137.204 Y119.089 E.01383
G1 X139.089 Y117.204 E.08211
G1 X139.089 Y116.754 E.01386
G1 X136.611 Y119.232 E.10794
;WIPE_START
G1 F3360
G1 X139.089 Y116.754 E-.89175
G1 X139.089 Y117.204 E-.11451
G1 X137.717 Y118.576 E-.49374
;WIPE_END
G1 Z.65 F720
G1 X136.041 Y122.05 F4200
G1 Z.25 F720
G1 E1.5 F900
G1 F809.855
G1 X136.271 Y121.819 E.01004
G1 X136.271 Y121.37 E.01383
G1 X135.734 Y121.907 E.02339
G1 X135.285 Y121.907 E.01383
G1 X136.271 Y120.92 E.04297
G1 X136.271 Y120.471 E.01383
G1 X134.835 Y121.907 E.06255
G1 X134.386 Y121.907 E.01383
G1 X136.271 Y120.021 E.08213
G1 X136.271 Y119.572 E.01383
G1 X133.936 Y121.907 E.10171
G1 X133.487 Y121.907 E.01383
G1 X141.907 Y113.487 E.36678
G1 X141.907 Y113.936 E.01383
G1 X139.572 Y116.271 E.10171
G1 X140.021 Y116.271 E.01383
G1 X141.907 Y114.386 E.08213
G1 X141.907 Y114.835 E.01383
G1 X140.471 Y116.271 E.06255
G1 X140.92 Y116.271 E.01383
G1 X141.907 Y115.285 E.04297
G1 X141.907 Y115.734 E.01383
G1 X141.37 Y116.271 E.02339
G1 X141.819 Y116.271 E.01383
G1 X142.05 Y116.041 E.01004
;LAYER_CHANGE
;Z:0.5
;HEIGHT:0.25
;BEFORE_LAYER_CHANGE
G92 E0.0
;0.5


;WIPE_START
G1 F3360
G1 X141.819 Y116.271 E-.08295
G1 X141.37 Y116.271 E-.11425
G1 X141.907 Y115.734 E-.19325
G1 X141.907 Y115.285 E-.11425
G1 X140.92 Y116.271 E-.35501
G1 X140.471 Y116.271 E-.11425
G1 X141.907 Y114.835 E-.51677
G1 X141.907 Y114.799 E-.00927
;WIPE_END
G1 Z.5 F720
;AFTER_LAYER_CHANGE
;0.5
G1 Z.9
G1 X123.295 Y108.251 F4200
G1 Z.5 F720
G1 E1.5 F900
;TYPE:Perimeter
;WIDTH:0.599999
;HEIGHT:0.15
G1 F704.462
G1 X123.162 Y108.19 E.00518
G1 X122.599 Y107.792 E.02441
G1 X122.121 Y107.295 E.02442
G1 X121.767 Y106.757 E.0228
G1 X121.607 Y106.416 E.01334
G1 X121.413 Y105.81 E.02253
G1 X121.35 Y105.484 E.01176
G1 X121.315 Y104.966 E.01838
G1 X121.372 Y104.374 E.02106
G1 X121.552 Y103.708 E.02443
G1 X121.854 Y103.088 E.02442
G1 X122.265 Y102.535 E.0244
G1 X122.773 Y102.068 E.02443
G1 X123.359 Y101.704 E.02443
G1 X124.002 Y101.456 E.0244
G1 X124.688 Y101.332 E.02469
G1 X125.37 Y101.337 E.02415
G1 X125.697 Y101.39 E.01173
G1 X126.309 Y101.564 E.02253
G1 X126.887 Y101.844 E.02274
G1 X127.204 Y102.051 E.01341
G1 X127.619 Y102.406 E.01934
G1 X127.983 Y102.842 E.02011
G1 X128.333 Y103.436 E.02441
G1 X128.566 Y104.085 E.02442
G1 X128.674 Y104.766 E.02442
G1 X128.654 Y105.456 E.02444
G1 X128.504 Y106.129 E.02442
G1 X128.233 Y106.763 E.02441
G1 X127.847 Y107.334 E.02441
G1 X127.362 Y107.824 E.02441
G1 X126.794 Y108.215 E.02442
G1 X126.495 Y108.359 E.01175
G1 X125.894 Y108.567 E.02252
G1 X125.57 Y108.638 E.01175
G1 X125.007 Y108.686 E.02001
G1 X124.459 Y108.642 E.01947
G1 X123.789 Y108.477 E.02443
G1 X123.349 Y108.276 E.01713
G1 X123.349 Y108.276 F4200
G1 X123.573 Y107.756
G1 F704.462
G1 X123.417 Y107.683 E.0061
G1 X122.944 Y107.341 E.02067
G1 X122.544 Y106.916 E.02067
G1 X122.253 Y106.464 E.01904
G1 X122.148 Y106.244 E.00863
G1 X121.954 Y105.638 E.02253
G1 X121.883 Y104.962 E.02407
G1 X121.936 Y104.438 E.01865
G1 X122.095 Y103.876 E.02068
G1 X122.355 Y103.354 E.02065
G1 X122.708 Y102.89 E.02064
G1 X123.142 Y102.5 E.02066
G1 X123.641 Y102.197 E.02067
G1 X124.187 Y101.993 E.02064
G1 X124.769 Y101.894 E.0209
G1 X125.346 Y101.904 E.02043
G1 X126.153 Y102.11 E.02949
G1 X126.609 Y102.339 E.01807
G1 X127.163 Y102.758 E.0246
G1 X127.543 Y103.201 E.02067
G1 X127.834 Y103.707 E.02067
G1 X128.025 Y104.258 E.02065
G1 X128.111 Y104.835 E.02066
G1 X128.087 Y105.418 E.02066
G1 X127.955 Y105.986 E.02065
G1 X127.719 Y106.52 E.02067
G1 X127.388 Y107 E.02065
G1 X126.973 Y107.411 E.02068
G1 X126.489 Y107.736 E.02064
G1 X125.709 Y108.03 E.02952
G1 X125.092 Y108.114 E.02205
G1 X124.51 Y108.076 E.02065
G1 X123.945 Y107.931 E.02066
G1 X123.627 Y107.782 E.01244
G1 X123.627 Y107.782 F4200
G1 X123.85 Y107.262
;TYPE:External perimeter
G1 F704.462
G1 X123.626 Y107.147 E.00892
G1 X123.25 Y106.853 E.0169
G1 X122.935 Y106.494 E.01691
G1 X122.689 Y106.071 E.01733
G1 X122.495 Y105.465 E.02253
G1 X122.45 Y104.958 E.01802
G1 X122.508 Y104.461 E.01772
G1 X122.657 Y103.995 E.01732
G1 X122.886 Y103.576 E.01691
G1 X123.188 Y103.207 E.01688
G1 X123.554 Y102.901 E.01689
G1 X123.971 Y102.668 E.01691
G1 X124.425 Y102.517 E.01694
G1 X124.903 Y102.453 E.01708
G1 X125.386 Y102.482 E.01713
G1 X125.998 Y102.656 E.02253
G1 X126.473 Y102.92 E.01924
G1 X126.835 Y103.231 E.0169
G1 X127.133 Y103.604 E.01691
G1 X127.356 Y104.026 E.0169
G1 X127.496 Y104.482 E.01689
G1 X127.549 Y104.957 E.01692
G1 X127.512 Y105.433 E.01691
G1 X127.387 Y105.894 E.01691
G1 X127.179 Y106.323 E.01688
G1 X126.894 Y106.706 E.0169
G1 X126.542 Y107.029 E.01692
G1 X126.125 Y107.286 E.01735
M73 P3 R128
M73 Q3 S128
